src/assets/img/logo.svg

<svg width="154" height="74" viewBox="0 0 154 74" fill="none" xmlns="http://www.w3.org/2000/svg">
  <path d="M104.123 40.9738L99.1998 41.9942L99.0477 51.6904L98.9242 56.6864L99.2534 58.275L99.5479 59.3185C99.7864 59.5885 99.9252 59.7427 100.545 60.2164C101.135 60.6045 101.467 60.7937 102.06 61.0069C103.006 61.2045 103.585 61.279 104.815 61.2641L107.461 60.9918L109.016 60.6696L109.997 60.19L111.183 59.392L112.106 58.5004L112.922 57.2265L113.634 55.5704C113.967 54.4696 114.09 53.8977 114.176 52.9728L114.124 43.5951L113.874 39.781L111.542 40.2644L111.57 52.1323L111.287 54.6763C111.146 55.1623 110.861 55.6431 110.32 56.5334C110.202 56.6912 110.013 56.8466 109.394 57.2777L107.58 57.6536L105.971 57.7111C105.373 57.5514 105.222 57.4734 105.083 57.3427L104.346 56.3911C103.954 55.1916 103.871 54.6471 103.797 53.7435L104.123 40.9738Z" fill="black" stroke="black" />
  <path d="M113.045 34.3906H101.137V33.5794H106.429H112.78L117.278 27.9013L123.629 39.7983L133.155 15.7339L137.124 53.588H137.388L145.326 32.4979L146.914 36.824H153V37.6352H146.385L145.326 34.6609L136.859 57.103L132.625 18.9785L123.629 42.2318L117.278 29.2532L113.045 34.3906Z" fill="black" stroke="black" stroke-width="0.1" />
  <path d="M92.435 21.3785L99.5693 21L99.6122 21.81L99.6552 22.62L97.2771 22.7462L95.1633 22.8584C95.1543 22.7652 95.0459 22.8279 94.6491 23.1564C94.6696 23.1697 94.6465 23.2399 94.4135 23.7104L94.1779 24.2645C94.0043 24.7985 93.9596 25.1507 93.9997 25.8985L94.0283 26.4385C94.0706 26.5864 94.1399 26.6365 94.3069 26.6945L98.5346 26.4702L98.5776 27.2802L98.6205 28.0903L95.9782 28.2305L94.3928 28.3146C94.2185 28.4502 94.1116 28.5646 93.893 28.8826C93.7022 29.5274 93.6775 29.8843 93.7147 30.5167C93.747 30.966 93.7906 31.2366 94.0506 31.8527C94.1463 32.0104 94.2321 32.11 94.6077 32.3647L98.0427 32.1824L98.0857 32.9924L98.1287 33.8025L91.2586 34.1669L90.4373 33.669L89.8801 33.157L89.5729 32.361L89.5013 31.011L90.1078 27.4588L91.1998 23.0686L91.6709 21.9606L91.9208 21.6765L92.435 21.3785Z" fill="black" stroke="black" />
  <path d="M19.8263 29.1982L23.672 7.26392L27.8963 6.98311L26.7426 13.5634L25.3249 20.1612L29.2852 19.898L30.0902 16.0507L34.3146 15.7699L32.0072 28.9304L29.895 29.0709L27.7828 29.2113L28.3597 25.9211L28.9365 22.631L25.5042 22.8591L24.3146 28.8998L19.8263 29.1982Z" fill="black" stroke="black" />
  <path d="M77.8924 33.2254L75.2493 33.3504L77.6456 22.4095L77.8588 21.3166L78.3363 20.2113L79.1036 19.6336L80.1609 19.5836L80.6895 19.5586L81.2309 19.8037L81.7851 20.3188L83.878 25.3629L84.6709 25.3254L85.1229 23.6799L85.5748 22.0343L85.8008 21.2116L86.0268 20.3888L87.084 20.3388L88.1413 20.2888L87.5017 23.5673L86.8493 26.5757L86.4229 28.7614L85.9965 30.9471L85.5574 32.8627L85.0543 33.4279L84.0098 33.748L83.2041 33.5154L82.65 33.0003L82.0574 31.6749L81.4522 30.0794L80.8469 28.4839L80.5442 27.6861L79.9517 26.3607L79.6618 25.833L78.8689 25.8706L78.4681 28.5964L77.8924 33.2254Z" fill="black" stroke="black" />
  <path d="M57.4776 38.4464L60.9174 37.9056L58.0068 34.1202H55.0961L52.7147 33.8498L50.5979 33.309L48.481 31.9571L46.8934 30.6052L45.5704 28.7125L44.7766 26.5494L44.5119 24.3863L44.7766 21.9528L45.835 19.5193L46.8934 17.897L48.481 16.5451L50.5979 15.4635L52.7147 14.9228H55.0961L57.213 15.1931L59.3298 16.0043L61.4467 17.6266L63.0343 19.5193L63.5635 21.1416L63.8281 22.4936V23.8455V25.4678V28.1717L67.5326 31.9571L68.0618 30.3348L68.3264 28.7125L70.4432 28.4421L72.8247 28.1717V22.4936L69.1202 21.9528L67.268 17.897L69.1202 13.5708L65.9449 10.867L62.5051 12.4893L58.0068 10.867L57.7422 8.43348V6.54078L51.9209 6L51.1271 10.0558L46.8934 11.9485L43.7181 9.24464L39.7491 12.4893L41.6013 16.5451L40.5429 20.6009L36.3092 21.1416L36.0446 26.5494L40.5429 27.3605L41.6013 32.2275L38.9552 34.6609L41.0721 37.0944L43.1889 38.9871L46.8934 36.2833L50.5979 38.4464L51.1271 43.0429H56.9484L57.4776 38.4464Z" fill="#BB3F36" />
  <path d="M52.9793 25.7382L50.8624 24.1159L50.0686 23.5751L50.8624 27.0901L51.9209 28.4421L52.7147 28.9828L53.5085 29.5236L55.0961 29.794L56.6838 29.5236L67.2679 42.5022L68.3264 43.8541C68.5891 44.2242 68.8226 44.4616 69.3848 44.9356C69.5898 45.1429 69.749 45.2608 70.1786 45.4764C70.3853 45.5951 70.8123 45.7121 71.237 45.7468C71.6617 45.7815 71.7662 45.7468 71.7662 45.7468H72.0308C72.2954 45.7468 72.8134 45.5448 73.0893 45.4764C73.3668 45.3939 73.6185 45.206 73.6185 45.206C73.6185 45.206 73.9553 44.8399 74.1477 44.3949C74.34 43.9498 74.3541 43.9632 74.4123 43.5837C74.3952 43.2699 74.3399 43.0928 74.1477 42.7725L72.2954 40.6094L61.182 28.4421L59.859 26.8197V24.6567V23.3047L59.5944 22.2232L58.8006 21.1416L57.213 20.3305H53.2439L55.8899 22.4936C56.0581 22.6879 56.1366 22.7032 56.4191 23.5751C56.3937 23.96 56.3095 24.1147 56.1545 24.3863L55.493 25.1974L54.8315 26.0086C54.2009 26.2768 53.291 25.9214 52.9793 25.7382Z" fill="black" />
  <path d="M2.85608 29.0574L2.8146 7.2393L11.4225 7.22293C13.0774 7.21979 14.4878 7.53316 15.6537 8.16304C16.8197 8.78583 17.7091 9.65417 18.322 10.7681C18.9421 11.8748 19.2534 13.1527 19.2562 14.6015C19.2589 16.0504 18.9489 17.3294 18.326 18.4385C17.7031 19.5477 16.7992 20.4123 15.6143 21.0325C14.4365 21.6526 13.0095 21.9643 11.3334 21.9674L5.84689 21.9779L5.83986 18.2811L10.5806 18.2721C11.4684 18.2705 12.1996 18.1164 12.7743 17.8099C13.3561 17.4963 13.7886 17.0658 14.0716 16.5183C14.3617 15.9638 14.5061 15.3279 14.5048 14.6106C14.5034 13.8861 14.3566 13.2543 14.0644 12.7151C13.7792 12.1687 13.3452 11.747 12.7623 11.4498C12.1793 11.1455 11.4404 10.9942 10.5455 10.9959L7.43469 11.0018L7.469 29.0487L2.85608 29.0574Z" fill="black" />
  <path d="M117.295 67.469L116.802 48.5664L124.26 48.3717C125.693 48.3343 126.922 48.5762 127.945 49.0975C128.969 49.6126 129.757 50.3463 130.312 51.2985C130.872 52.2445 131.169 53.345 131.201 54.6003C131.234 55.8556 130.992 56.9702 130.476 57.9442C129.96 58.9183 129.195 59.6864 128.181 60.2485C127.174 60.8105 125.944 61.1105 124.492 61.1484L119.738 61.2725L119.655 58.0698L123.762 57.9625C124.531 57.9424 125.161 57.7936 125.653 57.516C126.15 57.2321 126.516 56.85 126.75 56.3698C126.989 55.8833 127.101 55.3292 127.085 54.7078C127.069 54.0801 126.928 53.5358 126.664 53.0747C126.405 52.6074 126.02 52.2511 125.509 52.0058C124.997 51.7544 124.354 51.6388 123.579 51.659L120.884 51.7294L121.292 67.3647L117.295 67.469Z" fill="black" />
</svg>

<svg width="154" height="74" fill="none" xmlns="http://www.w3.org/2000/svg"><path d="m104.123 40.974-4.923 1.02-.152 9.696-.124 4.996.33 1.589.294 1.044c.238.27.377.424.997.897.59.389.922.578 1.515.79.946.199 1.525.273 2.755.258l2.646-.272 1.555-.322.981-.48 1.186-.798.923-.892.816-1.273.712-1.657c.333-1.1.456-1.672.542-2.597l-.052-9.378-.25-3.814-2.332.483.028 11.868-.283 2.544c-.141.486-.426.967-.967 1.857-.118.158-.307.314-.926.745l-1.814.376-1.609.057c-.598-.16-.749-.238-.888-.368l-.737-.952c-.392-1.2-.475-1.744-.549-2.648l.326-12.77Z" fill="#000" stroke="#000"/><path d="M113.045 34.39h-11.908v-.81h11.643l4.498-5.679 6.351 11.897 9.526-24.064 3.969 37.854h.264l7.938-21.09 1.588 4.326H153v.811h-6.615l-1.059-2.974-8.467 22.442-4.234-38.124-8.996 23.253-6.351-12.979-4.233 5.138Z" fill="#000" stroke="#000" stroke-width=".1"/><path d="M92.435 21.378 99.569 21l.043.81.043.81-2.378.126-2.114.112c-.009-.093-.117-.03-.514.298.02.014-.002.084-.236.554l-.235.555c-.174.534-.218.886-.178 1.633l.028.54c.043.148.112.199.279.257l4.228-.225.043.81.043.81-2.643.14-1.585.085c-.174.135-.281.25-.5.568-.19.644-.216 1.001-.178 1.634.032.449.076.72.336 1.336.095.157.181.257.557.512l3.435-.183.043.81.043.81-6.87.365-.822-.498-.557-.512-.307-.796-.072-1.35.607-3.552 1.092-4.39.47-1.108.25-.284.515-.299ZM19.826 29.198l3.846-21.934 4.224-.28-1.153 6.58-1.418 6.597 3.96-.263.805-3.847 4.225-.281-2.308 13.16-2.112.14-2.112.141.577-3.29.576-3.29-3.432.228-1.19 6.04-4.488.3ZM77.892 33.225l-2.643.125 2.397-10.94.213-1.093.477-1.106.768-.577 1.057-.05.528-.025.542.245.554.515 2.093 5.044.793-.038.452-1.645.452-1.646.226-.822.226-.823 1.057-.05 1.057-.05-.64 3.278-.652 3.009-.426 2.185-.427 2.186-.439 1.916-.503.565-1.044.32-.806-.233L82.65 33l-.593-1.325-.605-1.596-.605-1.595-.303-.798-.592-1.325-.29-.528-.793.038-.4 2.725-.577 4.63Z" fill="#000" stroke="#000"/><path d="m57.478 38.446 3.44-.54-2.911-3.786h-2.91l-2.382-.27-2.117-.541-2.117-1.352-1.588-1.352-1.323-1.893-.793-2.163-.265-2.163.265-2.433 1.058-2.434 1.058-1.622 1.588-1.352 2.117-1.082 2.117-.54h2.381l2.117.27 2.117.811 2.117 1.623 1.587 1.892.53 1.623.264 1.352V28.172l3.705 3.785.529-1.622.264-1.623 2.117-.27 2.382-.27v-5.678l-3.705-.541-1.852-4.056 1.852-4.326-3.175-2.704-3.44 1.622-4.498-1.622-.265-2.434V6.541L51.921 6l-.794 4.056-4.234 1.893-3.175-2.704-3.969 3.244 1.852 4.056-1.058 4.056-4.234.54-.264 5.408 4.498.811 1.058 4.867-2.646 2.434 2.117 2.433 2.117 1.893 3.704-2.704 3.705 2.163.53 4.597h5.82l.53-4.597Z" fill="#BB3F36"/><path d="m52.98 25.738-2.118-1.622-.793-.54.793 3.514 1.059 1.352.794.54.793.542 1.588.27 1.588-.27 10.584 12.978 1.058 1.352c.263.37.497.608 1.059 1.082.205.207.364.325.794.54.206.12.633.236 1.058.27.425.035.53 0 .53 0h.264c.264 0 .782-.201 1.058-.27.278-.082.53-.27.53-.27s.336-.366.529-.811c.192-.445.206-.432.264-.811-.017-.314-.072-.491-.264-.812l-1.853-2.163-11.113-12.167-1.323-1.622V23.305l-.265-1.082-.793-1.081-1.588-.811h-3.97l2.647 2.163c.168.194.247.21.53 1.081-.026.385-.11.54-.266.811l-.661.811-.662.812c-.63.268-1.54-.088-1.852-.27ZM2.856 29.057 2.815 7.24l8.607-.016c1.655-.003 3.066.31 4.232.94 1.166.623 2.055 1.491 2.668 2.605.62 1.107.931 2.385.934 3.833.003 1.45-.307 2.728-.93 3.838-.623 1.109-1.527 1.973-2.712 2.593-1.178.62-2.605.932-4.28.935l-5.487.01-.007-3.696 4.74-.009c.888-.002 1.62-.156 2.194-.462.582-.314 1.015-.744 1.298-1.292.29-.554.434-1.19.433-1.907-.002-.725-.148-1.357-.44-1.896a2.917 2.917 0 0 0-1.303-1.265c-.583-.304-1.322-.456-2.216-.454l-3.111.006.034 18.047-4.613.008ZM117.295 67.469l-.493-18.903 7.458-.194c1.433-.038 2.662.204 3.685.725 1.024.516 1.812 1.25 2.367 2.201.56.947.857 2.047.889 3.302.033 1.256-.209 2.37-.725 3.344-.516.974-1.281 1.742-2.295 2.304-1.007.563-2.237.863-3.689.9l-4.754.124-.083-3.202 4.107-.108c.769-.02 1.399-.168 1.891-.446a2.636 2.636 0 0 0 1.097-1.146c.239-.487.351-1.04.335-1.662-.016-.628-.157-1.172-.421-1.633a2.533 2.533 0 0 0-1.155-1.07c-.512-.25-1.155-.366-1.93-.346l-2.695.07.408 15.636-3.997.104Z" fill="#000"/></svg>
